!!!!SEGMENT: pl-wumfc--r282--001-008_paderewski-ignacy-jan--exercises-1-exercise-8.krn
!!!cenid: 18xx:3167
!!!COM: Paderewski, Ignacy Jan
!!!COM-rismID: pe30029943
!!!CDT: 1860/11/18-1941/06/29
!!!CNT: Polish
!!!GTL: [Exercises 1]
!!!OTL: [Exercise] 8
!!!OMV: 008
!!!PDT:
!!!AGN:
!!!SMS-siglum: PL-Wumfc
!!!SMS-shelfmark: R282
!!!SMS-shelfwork: 001-008 G
!!!SMS-variant:
!!!SMS-altvar:
!!!NIFC-rismSourceID: 1001158933
!!!NIFC-rismChildID: 1001158933
!!!NIFC-islandoraID: pl-wumfc:419
!!!URL-pdf-islandora: https://repozytorium.nifc.pl/islandora/object/pl-wumfc%3A419/datastream/PDF/view
!!!URL-scan: https://polish.musicsources.pl/pl/lokalizacje/galeria/rekopisy/4702 @EN{Scan on Polish Music Sources Website} @PL{Skany w portalu Dziedzictwo Muzyki Polskiej w otwartym dostępie}
!!!ONB-nifc: UWAGA: pierwsza grupa ćwiczeń na skanach 0004-0007
!!!AIN: 1 piano
!!!key: e
!!!filter-modern: sic -sq | shed -e "s/TX(.*):t=P:/tx$1:t=P:/LG" | autostem -r | modori -m |
**kern	**kern
*part1	*part1
*staff2	*staff1
*I"[Pianoforte]	*I"[Pianoforte]
*I'	*I'
*mI"Pianoforte	*mI"Pianoforte
*mI'pf	*mI'pf
*Ipiano	*Ipiano
*ICklav	*ICklav
*IGsolo	*IGsolo
*clefF4	*clefG2
*k[f#]	*k[f#]
*e:	*e:
*M4/4	*M4/4
*met(c)	*met(c)
*mmet(c)	*mmet(c)
*>[A,A,B]	*[A,A,B]
*>A	*>A
!LO:TX:a:Bi:t=C.f.	!LO:TX:a:Bi:t=[[C.f.]]:mod=
2E\	4e/
.	4d/
=1	=1
1A	4c/
.	4B/
.	4c/
.	4d/
=2	=2
1G	4e/
.	4d#X/
.	4e/
.	4g/
=3	=3
1F#	4a/
.	4g/
.	4a/
.	4b/
=4	=4
1E	4cc\
.	4b\
.	4cc\
.	4g/
=5	=5
[>1D#X	4f#/
.	4g/
.	4f#/
.	4e/
=6	=6
1D#]	4f#/
.	4g/
.	4a/
.	4b/
=7	=7
1E;>	2g;>/
.	4g/
.	4e/
=8	=8
1B	4gg\
.	4ff#\
.	4gg\
.	4dd\
=9	=9
1c	4ee\
.	4dd\
.	4cc\
.	4dd\
=10	=10
1c	4ee\
.	4dd\
.	4ee\
.	4cc\
=11	=11
1B	4dd\
.	4cc\
.	4b\
.	4cc\
=12	=12
1B	4dd\
.	4cc\
.	4dd\
.	4b\
!!LO:LB:g=original
=13	=13
[>1A	4cc\
.	4dd\
.	4cc\
.	4b\
=14	=14
1A]	4a/
.	4f#/
.	4e/
.	4d/
=15	=15
!	!LO:SIC:s=(4c
1A;>	(>4c/
.	4B/
.	4c/
.	4d/)
=16:|!	=16:|!
*>B	*>B
1c	4e/
.	4d/
.	4e/
.	4f#/
=17	=17
1B	4g/
.	4f#/
.	4g/
.	4a/
=18	=18
1G	4b\
.	4cc\
.	4dd\
.	4ee\
=19	=19
1A	4cc\
.	4b\
.	4cc\
.	4a\
=20	=20
1B	4g/
.	4a/
.	4g/
.	4fn/
=21	=21
[>1c	4e/
.	4d/
.	4e/
.	4f#/
=22	=22
1c]	4e/
.	4g/
.	4a/
.	4b/
=23	=23
!	!LO:SIC:s=4cc;
1c;>	4cc\
.	4b\
.	4cc\
.	4dd\
=24	=24
1G	4ee\
.	4b\
.	4ee\
.	4dd\
=25	=25
1A	4cc\
.	4b\
.	4a/
.	4cc\
=26	=26
1G	4b\
.	4a/
.	4g/
.	4f#/
=27	=27
1A	4e/
.	4d/
.	4c/
.	4e/
=28	=28
1F#	4f#/
.	4g/
.	4a/
.	4b/
=29	=29
[>1E	4g/
.	4a/
.	4g/
.	4f#/
=30	=30
1E]	4e/
.	4d#X/
.	4c#X/
.	4d#/
!!LO:PB:g=original
=31	=31
!	!LO:SIC:s=4e;
1E;>	4e/
.	4f#/
.	4g/
.	4b/
=32	=32
1c	4a/
.	4b/
.	4cc\
.	4ee\
=33	=33
1B	4dd\
.	4ee\
.	4dd\
.	4cc\
=34	=34
1d	4b/
.	4a/
.	4b/
.	4f#/
=35	=35
1c	4e/
.	4f#/
.	4g/
.	4a/
=36	=36
1B	4b\
.	4cc\
.	4dd\
.	4ee\
=37	=37
1A	4cc\
.	4dd\
.	4cc\
.	4b\
=38	=38
1A	4a/
.	4g/
.	4f#/
.	4e/
=39	=39
!	!LO:SIC:s=4d#;
1B;>	4d#X/
.	4e/
.	4f#/
.	4e/
!!LO:LB:g=original
=40	=40
1E	4e/
.	4f#/
.	4g/
.	4b/
=41	=41
1F#	4a/
.	4g/
.	4a/
.	4b/
=42	=42
1E	4cc\
.	4b\
.	4cc\
.	4g/
=43	=43
1D#X	4f#/
.	4e/
.	4f#/
.	4g/
=44	=44
1D#X	4f#/
.	4g/
.	4a/
.	4b/
=45	=45
1E	4g/
.	4a/
.	4b/
.	4a/
=46	=46
1E	4g/
.	4a/
.	4g/
.	4f#/
=47	=47
1E	1e
==	==
*-	*-
!!!system-decoration: {(s1,s2)}
!!!RDF**kern: > = above
!!!RDF**kern: < = below
!!!RDF**kern: | = vertical stroke
!!!RDF**kern: N = linked
!!!RDF**kern: i = editorial accidental
!!!ENC: Filip Voros
!!!END: 2021-11-12
!!!EED: Wojciech Jakubiak-Danek
!!!EEV: 2021-11-13
!!!ENC-modern: Andrzej Borzym
!!!END-modern: 2022-08-29
!!!YEC: Copyright 2022 Narodowy Instytut Fryderyka Chopina (https://polishscores.org)
!!!YEM: License CC-BY-4.0 (https://creativecommons.org/licenses/by/4.0)
